packages/IcoMoon/src/FolderDownloadIcon/index.svg

<svg version="1.1" xmlns="http://www.w3.org/2000/svg" width="16" height="16" viewBox="0 0 16 16">
<path d="M9 4l-2-2h-7v13h16v-11h-7zM8 13.5l-3.5-3.5h2.5v-4h2v4h2.5l-3.5 3.5z"></path>
</svg>

<svg xmlns="http://www.w3.org/2000/svg" viewBox="0 0 16 16">
  <path d="M9 4L7 2H0v13h16V4H9zm-1 9.5L4.5 10H7V6h2v4h2.5L8 13.5z"/>
</svg>
